svgs/duotone/tent-arrow-turn-left.svg

<svg xmlns="http://www.w3.org/2000/svg" viewBox="0 0 576 512"><!--! Font Awesome Pro 6.1.1 by @fontawesome - https://fontawesome.com License - https://fontawesome.com/license (Commercial License) Copyright 2022 Fonticons, Inc. --><defs><style>.fa-secondary{opacity:.4}</style></defs><path class="fa-primary" d="M121.8 7.945C130.7 17.8 129.9 32.97 120.1 41.84L86.54 72H456C522.3 72 576 125.7 576 192V232C576 245.3 565.3 256 552 256C538.7 256 528 245.3 528 232V192C528 152.2 495.8 120 456 120H86.54L120.1 150.2C129.9 159 130.7 174.2 121.8 184.1C112.1 193.9 97.8 194.7 87.94 185.8L7.945 113.8C2.888 109.3 0 102.8 0 96C0 89.2 2.888 82.71 7.945 78.16L87.94 6.161C97.8-2.706 112.1-1.907 121.8 7.945H121.8z"/><path class="fa-secondary" d="M268.6 166.5C280.1 157.8 295.9 157.8 307.4 166.5L475.4 294.5C482 299.6 486.4 307 487.6 315.3L511.6 475.3C513 484.5 510.3 493.8 504.2 500.9C498.2 507.9 489.3 512 480 512H384L287.1 352V512H96C86.68 512 77.83 507.9 71.75 500.9C65.67 493.8 62.97 484.5 64.35 475.3L88.35 315.3C89.59 307 93.98 299.6 100.6 294.5L268.6 166.5z"/></svg>

<svg xmlns="http://www.w3.org/2000/svg" viewBox="0 0 576 512"><!--! Font Awesome Pro 6.4.2 by @fontawesome - https://fontawesome.com License - https://fontawesome.com/license (Commercial License) Copyright 2023 Fonticons, Inc. --><path class="fa-primary" style="fill:var(--fa-primary-color,inherit);opacity:var(--fa-primary-opacity,1);" d="M121.8 7.9c8.9 9.9 8.1 25-1.8 33.9L86.5 72 456 72c66.3 0 120 53.7 120 120l0 40c0 13.3-10.7 24-24 24s-24-10.7-24-24l0-40c0-39.8-32.2-72-72-72L86.5 120l33.5 30.2c9.9 8.9 10.7 24 1.8 33.9s-24 10.7-33.9 1.8l-80-72C2.9 109.3 0 102.8 0 96s2.9-13.3 7.9-17.8l80-72c9.9-8.9 25-8.1 33.9 1.8z"/><path class="fa-secondary" style="fill:var(--fa-secondary-color,inherit);opacity:var(--fa-secondary-opacity,.4);" d="M268.6 166.5c11.5-8.7 27.3-8.7 38.8 0l168 128c6.6 5 11 12.5 12.3 20.7l24 160c1.4 9.2-1.3 18.6-7.4 25.6s-14.9 11.1-24.2 11.1H384L288 352V512H96c-9.3 0-18.2-4.1-24.2-11.1s-8.8-16.4-7.4-25.6l24-160c1.2-8.2 5.6-15.7 12.3-20.7l168-128z"/></svg>
